!!!OTL: Auswandererlied (170e), S. 373
!!!id: T0034
**kern
*clefG2
*k[f#c#g#]
*A:
{8a
=1
8g#
8a
4.b
8a
=2
8g#
8f#
4e
8c#}
=3
{8a
=4
8g#
8a
4.b
8a
=5
8g#
8f#
4e
8c#}
=6
{8a
=7
8g#
8cc#
4.b
8e
=8
4.cc#
8b
8a}
=9
{8g#
=10
8a
8f#
4.e
16cc#
16cc#
=11
8ee
8g#
4a}
8r
==
*-
!!!minrhy: 16
!!!meters: 3/4 ]  ZZ[4
!!!cut1: Auswandererlied (170e), S. 373
!!!cut2: Melodie II
!!!reg: Luxemburg
!!!trd: Singendes Volk, Esch-Alzette, 1937 posth.
!!!rhy1: X_  X_X_X__.X_  X_X_X__X_   (x2)
!!!rhy2: X_  X_X_X__.X_  X_X_X__X_
!!!key: T0034  16  A 3/4 ]  ZZ[4
!!!mod: SECHSTONSKALA DUR ?]  AMBITUS[10b
!!!kad: -3-311
!!!akz: -7-7_-7-7_-73_15_
!!!fot: 'a__a__b__c__
!!!for: 'a__a__b__c__
!!!fok: '\__\__^__Sa_
!! PHRAS[AUFTAKTIG]
!!!fkt: Abschieds- und Wanderlieder, Heimatlieder
!!!bem: Heffingen, hhh Nikolaus Ewen, 10.6.1935
!! THILL, Mathias:
!! PR[8] 2K[6] 2G[24] 3K[4] 3G[0] 4A[8] 4Ü[0] 5A[2] 6K[0] 6G[0]
!! 7K[0] 7G[0] 8A[0] MEHR[2] SI[47] ABS[49] SR[31] SP[16]
!! ST[12] 2k[4] 2g[24] 3k[2] 3g[4] 4d[4] 4ü[2] 5d[0] 6k[4] 6g[0]
!! 7k[0] 7g[0] 8d[0] mehr[0] si[45] dm[+2] sr[29] sp[16]
!! 1F[75] 2F[18] 3F[0] 4F[0] LF[0] 2P[7] 3P[0] 4P[0] TRI[0] DF[3] AB[56]
!! TF[0] U3K[0] U3[0] U4[0] U4Ü[0] U5[8] U6K[0] U6[10] U7K[0] U7[10]
!! N1[18] N2K[0] N2[18] N3K[0] N3[10] N4[8] N4Ü[0] N5[12] N6K[0] N6[4]
!!!n7k: 0] N7[2] O1[0] O2K[0] O2[0] O3K[0] O3[0] HÖ[0
